X:1
T:Title
%%score [ 1 2 3 ( 4 5 ) ]
L:1/8
Q:1/4=75
M:4/4
K:C
V:1 treble nm="MusicXML Part"
V:2 treble nm="MusicXML Part"
V:3 treble-8 nm="MusicXML Part"
V:4 bass nm="MusicXML Part"
V:5 bass 
V:1
 z2 Bc d z Bc | d z Bc dBcd | z2 dd c4 | z2 cc c4 | c2 c2 A4 | z2 z2 z2 _EE | _edc_B Bc _d2- | %7
w: Diep ge- schokt, Diep ge-|schokt, Diep ge- schokt, Diep ge- schokt,|Diep ge- schokt,|zich te- rug|zich te- rug|in de-|* ven- ka- mer van het poort-|
 d_d c2 c3 c | d8 |: z2 d4 A2- | A2 _B4 c2 | _e2 d2 _d2 d2- |1 d2 c2 c4 :|2 _d2 c2 c4 || %14
w: * ge- bouw; poort- ge-|bouw;|we- *||* * nend we-|* * nend|* * nend|
 c2 A2 c2 A2 | c4 A2 A2 | _B2 B2 g4 | g2 g2 f4 | f2 z f f4 | f8 |:[M:3/4] z A A4 | z A A4 | %22
w: liep hij op en|neer, ter- wijl|hij bleef roe-|pen: bleef roe-|pen: bleef roe-|pen:|mijn zoon,|mijn zoon,|
 z c c4 | z c c4 | z A A4 | z e e4 | z ^d d4 | c3 c c2 :| BB BB BB | d6 | cc cc cc | e6- | e4 e2 | %33
w: mijn zoon,|mijn zoon,|mijn zoon,|mijn zoon,|mijn zoon!|Ab- sa- lom,|Ach, was ik maar in jouw|plaats|Ach, was ik maar in jouw|plaats|* ge-|
 ^d2 B2 E2 | ^D6 | !fermata!B,6 | z A A4 | z A A4 | z c c4 | z c c4 | z A A4 | z e e4 | z ^d d4 | %43
w: stor- ven, ge-|stor-|ven!|mijn zoon,|mijn zoon,|mijn zoon,|mijn zoon,|mijn zoon,|mijn zoon,|mijn zoon!|
"^rit." c3 c cc | B4 B2 |"^rit." A6- | A6 |] %47
w: Ab- sa- lom, mijn|zoon, mijn|zoon!||
V:2
 z2 GF E z GF | E z GF _EGFE | z2 _EE D4 | z2 DD G4 | G2 G2 F4 | z2 z2 CCc_B | _BB_AA B3 B | %7
w: Diep ge- schokt, Diep ge-|schokt, Diep ge- schokt, Diep ge- schokt,|Diep ge- schokt,|zich te- rug|zich te- rug|in de- * ven-|ka- mer van het poort- ge-|
 A4 _B2 A2 | _B8 |: _B4 ^F4 | G4 _E4 | _G2 F2 _A2 G2 |1 F8 :|2 _G2 F2 F2 F2 || ^F2 F2 A4 | %15
w: bouw; poort- ge-|bouw;|we- *|* nend|liep hij op en|neer,|neer, * ter- wijl|hij bleef roe-|
 A4 ^F2 F2 | G2 G2 d4 | _e2 e2 d2 c2 | _B2 z B B4- | B4 A4 |:[M:3/4] z F F4 | z F F4 | z A A4 | %23
w: pen: ter- wijl|hij bleef roe-|pen: bleef roe- *|pen: bleef roe-|* pen:|mijn zoon,|mijn zoon,|mijn zoon,|
 z A A4 | z ^F F4 | z A A4 | z ^F F4 | A3 F F2 :| EE EE EE | B6 | AA AA AA | B6- | B4 B2 | %33
w: mijn zoon,|mijn zoon,|mijn zoon,|mijn zoon!|Ab- sa- lom,|Ach, was ik maar in jouw|plaats|Ach, was ik maar in jouw|plaats|* ge-|
 B2 ^F2 C2 | B,4 A,2 | G,6 | z F F4 | z F F4 | z A A4 | z A A4 | z ^F F4 | z A A4 | z ^F F4 | %43
w: stor- ven, ge-|stor- *|ven!|mijn zoon,|mijn zoon,|mijn zoon,|mijn zoon,|mijn zoon,|mijn zoon,|mijn zoon!|
 A3 F FF | E6 | E3 ^C C2- | C6 |] %47
w: Ab- sa- lom, mijn|zoon,|Ab- sa- lom,||
V:3
 z2 GA B z GA | B z GA _BGAB | z2 _BB A4 | z2 AA A4 | _B2 B2 c4 | z2 DD dc_BA | FF G3 G G2 | %7
w: Diep ge- schokt, Diep ge-|schokt, Diep ge- schokt, Diep ge- schokt,|Diep ge- schokt,|zich te- rug|zich te- rug|in de- * ven- ka- mer|van het poort- ge- bouw;|
 A4 G4 | F8 |: G4 A4 | _B4 c4 | _B4 B4 |1 _B2 A2 B2 A2 :|2 _B2 A2 A2 A2 || _e4 d4 | _e2 e2 e2 e2 | %16
w: poort- ge-|bouw;|we- *|* nend|liep hij|op en neer, *|ter- wijl hij bleef|roe- pen:|ter- wijl hij bleef|
 d4 B4 | c4 d4 | d2 z d e4 | g4 f4 |:[M:3/4] z c c4 | z c c4 | z A A4 | z f f4 | z _e e4 | z c c4 | %26
w: roe- pen:|roe- *|pen: bleef roe-|* pen:|||||||
 z c c4 | e3 e e2 :| B3 ^G G2 | ^GG GG GG | A6 | ^GG GG GG | G4 G2 | ^F2 ^D2 E2 | ^F6 | E6 | %36
w: |Ab- sa- lom,|Ab- sa- lom,|Ach, was ik maar in jouw|plaats|Ach, was ik maar in jouw|plaats ge-|stor- ven, ge-|stor-|ven!|
 z c c4 | z c c4 | z A A4 | z f f4 | z _e e4 | z c c4 | z c c4 | e3 e ee | e4 d2 | e6- | e6 |] %47
w: |||||||Ab- sa- lom, mijn|zoon, mijn|zoon!||
V:4
 z2 G,G, G, z G,G, | G, z G,G, G,G,G,G, | D,6 D,D, | _E,8 | F,2 F,2 D,4 | C,C,C_B, A,G,F,_E, | %6
w: Diep ge- schokt, Diep ge-|schokt, trok de ko- ning zich te-|rug zich te-|rug|zich te- rug|in de- * ven- ka- mer van het|
 D,3 D, _E,4 | F,6 F,2 | _B,,8 |: D,4 D,4 | _E,2 D,2 E,2 C,2 | _B,,8 |1 F,4 F,4 :|2 F,4 F,4 || %14
w: poort- ge- bouw;|poort- ge-|bouw;|we- nend|liep hij op en|neer,|we- nend|we- nend|
 A,2 A,2 A,2 A,2 | C4 C4 | G,2 G,2 G,2 G,2 | C4 A,4 | _B,2 z D C4 | C8 |:[M:3/4] C3 A, A,2 | %21
w: ter- wijl hij bleef|roe- pen:|ter- wijl hij bleef|roe- *|pen: bleef roe-|pen:|Ab- sa- lom,|
 C3 A, A,2 | C3 A, A,2 | C3 A, A,2 | C3 A, A,2 | C3 A, A,2 | C3 A, A,2 | C3 A, A,2 :| E,3 E, E,2 | %29
w: Ab- sa- lom,|Ab- sa- lom,|Ab- sa- lom,|Ab- sa- lom,|Ab- sa- lom,|Ab- sa- lom,|Ab- sa- lom,|Ab- sa- lom,|
 F,F, F,F, F,F, | E,6 | D,D, D,D, D,D, | C,4 C,2 | B,,2 B,,2 B,,2 | B,,6 | E,,6 | C3 A, A,2 | %37
w: Ach, was ik maar in jouw|plaats|Ach, was ik maar in jouw|plaats ge-|stor- ven, ge-|stor-|ven!|Ab- sa- lom,|
 C3 A, A,2 | C3 A, A,2 | C3 A, A,2 | C3 A, A,2 | C3 A, A,2 | C3 A, A,2 | C3 A, A,A, | ^G,4 G,2 | %45
w: Ab- sa- lom,|Ab- sa- lom,|Ab- sa- lom,|Ab- sa- lom,|Ab- sa- lom,|Ab- sa- lom,|Ab- sa- lom, mijn|zoon, mijn|
 A,6- | A,6 |] %47
w: zoon!||
V:5
 x8 | x8 | x8 | x8 | x8 | x8 | x8 | x8 | x8 |: x8 | x8 | x8 |1 x8 :|2 x8 || x8 | x8 | x8 | x8 | %18
w: ||||||||||||||||||
 x8 | x8 |:[M:3/4] z D, D,4 | z _E, E,4 | z E, E,4 | z F, F,4 | z ^F, F,4 | z G, G,4 | z ^G, G,4 | %27
w: ||mijn zoon!|mijn zoon,|mijn zoon,|mijn zoon,|mijn zoon,|mijn zoon,|mijn zoon!|
 A,3 A, A,2 :| x6 | x6 | x6 | x6 | x6 | x6 | x6 | x6 | z D, D,4 | z _E, E,4 | z E, E,4 | z F, F,4 | %40
w: |||||||||mijn zoon!|mijn zoon,|mijn zoon,|mijn zoon,|
 z ^F, F,4 | z G, G,4 | z ^G, G,4 | x6 | x6 | x6 | x6 |] %47
w: mijn zoon,|mijn zoon,|mijn zoon!|||||

